X: 3378
T: WILLIE WAS A WANTON WAG.
%R: air, march
B: James Kerr "Merry Melodies" v.3 p.42 #378
Z: 2016 John Chambers <jc:trillian.mit.edu>
M: 2/4
L: 1/8
K: D
uA |\
FAA (B/c/) | d>edA | FAAf | edB (A/G/) |\
FAA (B/c/) | d>efg | aAAf | edd :|
|: g |\
faef | d>efd | faef | edBg |\
faef | d>efg | aAAf | edd :|

%%sep 1 1 500
%%sep 1 1 500

